source/images/icons/icon-editorial/permis-occupation-temporaire.svg

<?xml version="1.0" encoding="UTF-8"?>
<svg width="80px" height="80px" viewBox="0 0 80 80" version="1.1" xmlns="http://www.w3.org/2000/svg" xmlns:xlink="http://www.w3.org/1999/xlink">
    <!-- Generator: Sketch 55.2 (78181) - https://sketchapp.com -->
    <title>Illustrative Icons/Permis-occupation-temporaire</title>
    <desc>Created with Sketch.</desc>
    <g id="Illustrative-Icons/Permis-occupation-temporaire" stroke="none" stroke-width="1" fill="none" fill-rule="evenodd">
        <path d="M31.2080453,43.3037857 L30.2035891,39.9802857 L23.4048026,39.9802857 L22.371974,43.3037857 L31.2080453,43.3037857 Z M32.2010813,46.5895 L21.350888,46.5895 L20.3379705,49.8489286 L33.1861732,49.8489286 L32.2010813,46.5895 Z M29.210553,36.6945714 L27.233418,30.1527143 L26.4588711,30.1527143 L24.4258888,36.6945714 L29.210553,36.6945714 Z M16.8559737,49.8489286 L23.6436219,28.0072119 C23.8591638,27.3136283 24.5033163,26.8407143 25.2325,26.8407143 L28.4698,26.8407143 C29.2037637,26.8407143 29.8509568,27.3197389 30.0624528,28.0195279 L36.6599174,49.8489286 L38.34505,49.8489286 C39.25585,49.8489286 39.99505,50.5849286 39.99505,51.4917857 C39.99505,52.3986429 39.25585,53.1346429 38.34505,53.1346429 L15.283,53.1346429 C14.37055,53.1346429 13.633,52.3986429 13.633,51.4917857 C13.633,50.5849286 14.3722,49.8489286 15.283,49.8489286 L16.8559737,49.8489286 Z M48.25,33.4285714 C47.3392,33.4285714 46.6,32.6925714 46.6,31.7857143 C46.6,30.8788571 47.3392,30.1428571 48.25,30.1428571 L63.1,30.1428571 C64.0108,30.1428571 64.75,30.8788571 64.75,31.7857143 C64.75,32.6925714 64.0108,33.4285714 63.1,33.4285714 L48.25,33.4285714 Z M48.25,41.6428571 C47.3392,41.6428571 46.6,40.9068571 46.6,40 C46.6,39.0931429 47.3392,38.3571429 48.25,38.3571429 L59.8,38.3571429 C60.7108,38.3571429 61.45,39.0931429 61.45,40 C61.45,40.9068571 60.7108,41.6428571 59.8,41.6428571 L48.25,41.6428571 Z M48.25,49.8571429 C47.3392,49.8571429 46.6,49.1211429 46.6,48.2142857 C46.6,47.3074286 47.3392,46.5714286 48.25,46.5714286 L61.45,46.5714286 C62.3608,46.5714286 63.1,47.3074286 63.1,48.2142857 C63.1,49.1211429 62.3608,49.8571429 61.45,49.8571429 L48.25,49.8571429 Z M10.3,18.6428571 C10.3,19.5497143 9.5608,20.2857143 8.65,20.2857143 C7.7392,20.2857143 7,19.5497143 7,18.6428571 C7,17.736 7.7392,17 8.65,17 C9.5608,17 10.3,17.736 10.3,18.6428571 Z M68.05,17 C70.7791,17 73,19.2112857 73,21.9285714 L73,58.0714286 C73,60.7887143 70.7791,63 68.05,63 L11.95,63 C9.2209,63 7,60.7887143 7,58.0714286 L7,25.2142857 C7,24.3074286 7.7392,23.5714286 8.65,23.5714286 C9.5608,23.5714286 10.3,24.3074286 10.3,25.2142857 L10.3,58.0714286 C10.3,58.9766429 11.04085,59.7142857 11.95,59.7142857 L68.05,59.7142857 C68.95915,59.7142857 69.7,58.9766429 69.7,58.0714286 L69.7,21.9285714 C69.7,21.0233571 68.95915,20.2857143 68.05,20.2857143 L15.26485,20.2857143 C14.35405,20.2857143 13.61485,19.5497143 13.61485,18.6428571 C13.61485,17.736 14.35405,17 15.26485,17 L68.05,17 Z" id="Shape" fill="#ADB5BD"></path>
    </g>
</svg>

<svg width="80" height="80">
    <title>
        Illustrative Icons/Permis-occupation-temporaire
    </title>
    <path d="M31.208 43.304l-1.004-3.324h-6.8l-1.032 3.324h8.836zm.993 3.285h-10.85l-1.013 3.26h12.848l-.985-3.26zm-2.99-9.894l-1.978-6.542h-.774l-2.033 6.542h4.785zM16.856 49.849l6.788-21.842a1.662 1.662 0 0 1 1.589-1.166h3.237c.734 0 1.381.479 1.592 1.179l6.598 21.829h1.685c.91 0 1.65.736 1.65 1.643s-.74 1.643-1.65 1.643H15.283c-.912 0-1.65-.736-1.65-1.643s.74-1.643 1.65-1.643h1.573zm31.394-16.42c-.91 0-1.65-.736-1.65-1.643s.74-1.643 1.65-1.643H63.1c.91 0 1.65.736 1.65 1.643s-.74 1.643-1.65 1.643H48.25zm0 8.214c-.91 0-1.65-.736-1.65-1.643s.74-1.643 1.65-1.643H59.8c.91 0 1.65.736 1.65 1.643s-.74 1.643-1.65 1.643H48.25zm0 8.214c-.91 0-1.65-.736-1.65-1.643s.74-1.643 1.65-1.643h13.2c.91 0 1.65.736 1.65 1.643s-.74 1.643-1.65 1.643h-13.2zM10.3 18.643c0 .907-.74 1.643-1.65 1.643-.91 0-1.65-.736-1.65-1.643S7.74 17 8.65 17c.91 0 1.65.736 1.65 1.643zM68.05 17c2.73 0 4.95 2.211 4.95 4.929V58.07C73 60.79 70.78 63 68.05 63h-56.1C9.22 63 7 60.789 7 58.071V25.214c0-.907.74-1.643 1.65-1.643.91 0 1.65.736 1.65 1.643v32.857c0 .906.74 1.643 1.65 1.643h56.1c.91 0 1.65-.737 1.65-1.643V21.93a1.65 1.65 0 0 0-1.65-1.643H15.265c-.91 0-1.65-.736-1.65-1.643S14.355 17 15.265 17H68.05z" fill="#ADB5BD" fill-rule="evenodd"/>
</svg>
